svgs/light/person-running.svg

<svg xmlns="http://www.w3.org/2000/svg" viewBox="0 0 448 512"><!--! Font Awesome Pro 6.3.0 by @fontawesome - https://fontawesome.com License - https://fontawesome.com/license (Commercial License) Copyright 2023 Fonticons, Inc. --><path d="M296 112C326.9 112 352 86.88 352 56S326.9 0 296 0S240 25.12 240 56S265.1 112 296 112zM296 32C309.2 32 320 42.77 320 56S309.2 80 296 80S272 69.23 272 56S282.8 32 296 32zM151.2 337.7c-7.906-3.906-17.47-.7344-21.47 7.156L118.1 368H32c-8.844 0-16 7.156-16 16s7.156 16 16 16h96c6.062 0 11.59-3.422 14.31-8.844l16-32C162.3 351.3 159.1 341.6 151.2 337.7zM416 240h-60.11c-6.125 0-11.62-3.43-14.34-8.898l-20.52-40.79c-13.62-27.23-36.09-49.73-63.34-63.36C238.1 117.2 216.2 112 194.3 112H154.7c-10.31 0-20.56 3.422-28.78 9.609L70.41 163.2c-7.062 5.297-8.5 15.33-3.219 22.39c5.312 7.094 15.34 8.5 22.41 3.203l55.5-41.59C147.8 145.1 151.2 144 154.7 144h39.69c3.738 0 7.396 .916 11.12 1.301L170.4 215.5C152.8 250.6 163.8 294.2 196.1 316.8l105.4 73.78l-28.84 101c-2.438 8.484 2.469 17.34 10.97 19.78C285.1 511.8 286.6 512 288 512c6.969 0 13.38-4.578 15.38-11.61l32-112c1.875-6.562-.5938-13.58-6.188-17.5L214.4 290.6c-19.38-13.55-26-39.69-15.44-60.8l38.22-76.42c2.014 .8574 4.201 1.25 6.158 2.229c21.09 10.53 38.5 27.95 49.03 49.05l20.44 40.83C321 261.8 337.5 272 355.8 272H416c8.844 0 16-7.156 16-16S424.8 240 416 240z"/></svg>

<svg xmlns="http://www.w3.org/2000/svg" viewBox="0 0 448 512"><!-- Font Awesome Pro 6.0.0-alpha2 by @fontawesome - https://fontawesome.com License - https://fontawesome.com/license (Commercial License) --><path d="M296 112C326.875 112 352 86.875 352 56S326.875 0 296 0S240 25.125 240 56S265.125 112 296 112ZM296 32C309.219 32 320 42.766 320 56S309.219 80 296 80S272 69.234 272 56S282.781 32 296 32ZM151.156 337.688C143.25 333.781 133.688 336.953 129.688 344.844L118.125 368H32C23.156 368 16 375.156 16 384S23.156 400 32 400H128C134.062 400 139.594 396.578 142.312 391.156L158.312 359.156C162.25 351.25 159.062 341.641 151.156 337.688ZM416 240H355.781C349.656 240 344.188 236.625 341.469 231.156L321.031 190.312C307.406 163.078 284.938 140.578 257.688 126.953C238.125 117.172 216.219 112 194.344 112H154.656C144.344 112 134.094 115.422 125.875 121.609L70.406 163.203C63.344 168.5 61.906 178.531 67.188 185.594C72.5 192.688 82.531 194.094 89.594 188.797L145.094 147.203C147.812 145.141 151.219 144 154.656 144H194.344C198.082 144 201.74 144.916 205.459 145.301L170.375 215.453C152.781 250.641 163.844 294.203 196.062 316.781L301.469 390.563L272.625 491.609C270.187 500.094 275.094 508.953 283.594 511.391C285.062 511.797 286.562 512 288 512C294.969 512 301.375 507.422 303.375 500.391L335.375 388.391C337.25 381.828 334.781 374.812 329.188 370.891L214.438 290.562C195.062 277.016 188.438 250.875 199 229.766L237.217 153.35C239.23 154.207 241.418 154.6 243.375 155.578C264.469 166.109 281.875 183.531 292.406 204.625L312.844 245.453C321 261.828 337.469 272 355.781 272H416C424.844 272 432 264.844 432 256S424.844 240 416 240Z"/></svg>
